svgs/sharp-solid/bed.svg

<svg xmlns="http://www.w3.org/2000/svg" viewBox="0 0 640 512"><!--! Font Awesome Pro 6.6.0 by @fontawesome - https://fontawesome.com License - https://fontawesome.com/license (Commercial License) Copyright 2024 Fonticons, Inc. --><path d="M64 32l0 32 0 256 224 0 0-160 0-32 32 0 224 0c53 0 96 43 96 96l0 224 0 32-64 0 0-32 0-32-224 0-32 0L64 416l0 32 0 32L0 480l0-32L0 64 0 32l64 0zm112 96a80 80 0 1 1 0 160 80 80 0 1 1 0-160z"/></svg>

<svg xmlns="http://www.w3.org/2000/svg" viewBox="0 0 640 512"><!--! Font Awesome Pro 6.4.2 by @fontawesome - https://fontawesome.com License - https://fontawesome.com/license (Commercial License) Copyright 2023 Fonticons, Inc. --><path d="M64 32V64 320H288V160 128h32H544c53 0 96 43 96 96V448v32H576V448 416H352 320 64v32 32H0V448 64 32H64zm112 96a80 80 0 1 1 0 160 80 80 0 1 1 0-160z"/></svg>
